www/assets/icons/do_not_disturb_off.svg

<svg xmlns="http://www.w3.org/2000/svg" width="24" height="24" viewBox="0 0 24 24" fill='currentColor'><path d="M17.5 10.5v2h-1.46l4.68 4.68a9.9 9.9 0 0 0 1.78-5.68c0-5.52-4.48-10-10-10-2.11 0-4.07.66-5.68 1.78l7.22 7.22zM2.77 1.77 1.5 3.04l2.78 2.78A9.9 9.9 0 0 0 2.5 11.5c0 5.52 4.48 10 10 10 2.11 0 4.07-.66 5.68-1.78l2.78 2.78 1.27-1.27zM7.5 12.5v-2h1.46l2 2z"/></svg>

<svg width="24" height="24" viewBox="0 0 24 24" xmlns="http://www.w3.org/2000/svg" fill='currentColor'><path d="M17.5 10.5V12.5H16.04L20.72 17.18C21.84 15.57 22.5 13.61 22.5 11.5C22.5 5.98 18.02 1.5 12.5 1.5C10.39 1.5 8.43 2.16 6.82 3.28L14.04 10.5H17.5ZM2.77 1.77L1.5 3.04L4.28 5.82C3.16 7.43 2.5 9.39 2.5 11.5C2.5 17.02 6.98 21.5 12.5 21.5C14.61 21.5 16.57 20.84 18.18 19.72L20.96 22.5L22.23 21.23L2.77 1.77ZM7.5 12.5V10.5H8.96L10.96 12.5H7.5Z"/></svg>
